X:1
T:Jackson's Jigg
L:1/8
Q:1/8=320
M:6/8
I:linebreak $
K:D
V:1 treble 
V:1
 AB/c/ | dAF FAF | dAF F2 F | dAF FAF | AFE E2 F | dAF FAF | dAF F2 d | cBA BAF |$ AFE E :| %9
 z c/d/ | ecA cBA | ecA A2 f | ecA c2 B | AFE E2 c/d/ | ecA cBA | ecA A2 d |$ cBA BAF | AFE E :| %18
 z F | dfd FdF | dAF F2 F | dFd FdF | AFE E2 F | dFd FdF |$ dAF F2 d | cBA BAF | AFE E :| %27
